public/formular-icons/english/lower-m.svg

<svg style="vertical-align:-.025ex" xmlns="http://www.w3.org/2000/svg" width="1.986ex" height="1.025ex" viewBox="0 -442 878 453" xmlns:xlink="http://www.w3.org/1999/xlink"><defs><path id="a" d="M21 287q1 6 3 16t12 38 20 47 32 37 44 17 43-7 30-18 16-22 8-19l2-7q0-2 1-2l11 11q60 64 141 64 17 0 31-2t26-7 19-10 15-12 10-13 8-13 4-12 3-9 2-7l8 10q63 75 149 75 54 0 87-27t34-79q0-51-38-158T704 50q1-14 5-19t15-5q28 0 52 30t39 82q3 11 6 13t16 2q20 0 20-8 0-1-4-15-8-29-22-57t-46-56-69-27q-47 0-68 27t-21 56q0 19 36 120t37 152q0 59-44 59h-5q-86 0-145-101l-7-12-33-134Q433 26 428 16q-13-27-43-27-13 0-21 7T353 8t-3 10q0 11 34 143l36 146q3 15 3 38 0 59-44 59h-5q-86 0-145-101l-7-12-33-134Q156 26 151 16q-13-27-43-27-13 0-21 6T76 7t-2 10q0 13 38 164 39 154 39 161 3 15 3 27 0 36-25 36-22 0-37-28t-23-61-12-36q-2-2-16-2H27q-6 6-6 9Z"/></defs><g stroke="currentColor" fill="currentColor" stroke-width="0"><use data-c="1D45A" xlink:href="#a" transform="scale(1 -1)"/></g></svg>

<svg style="vertical-align: -0.025ex" xmlns="http://www.w3.org/2000/svg" width="1.986ex" height="1.025ex" role="img" focusable="false" viewBox="0 -442 878 453" xmlns:xlink="http://www.w3.org/1999/xlink"><defs><path id="MJX-57-TEX-I-1D45A" d="M21 287Q22 293 24 303T36 341T56 388T88 425T132 442T175 435T205 417T221 395T229 376L231 369Q231 367 232 367L243 378Q303 442 384 442Q401 442 415 440T441 433T460 423T475 411T485 398T493 385T497 373T500 364T502 357L510 367Q573 442 659 442Q713 442 746 415T780 336Q780 285 742 178T704 50Q705 36 709 31T724 26Q752 26 776 56T815 138Q818 149 821 151T837 153Q857 153 857 145Q857 144 853 130Q845 101 831 73T785 17T716 -10Q669 -10 648 17T627 73Q627 92 663 193T700 345Q700 404 656 404H651Q565 404 506 303L499 291L466 157Q433 26 428 16Q415 -11 385 -11Q372 -11 364 -4T353 8T350 18Q350 29 384 161L420 307Q423 322 423 345Q423 404 379 404H374Q288 404 229 303L222 291L189 157Q156 26 151 16Q138 -11 108 -11Q95 -11 87 -5T76 7T74 17Q74 30 112 181Q151 335 151 342Q154 357 154 369Q154 405 129 405Q107 405 92 377T69 316T57 280Q55 278 41 278H27Q21 284 21 287Z"></path></defs><g stroke="currentColor" fill="currentColor" stroke-width="0" transform="scale(1,-1)"><g data-mml-node="math"><g data-mml-node="mi"><use data-c="1D45A" xlink:href="#MJX-57-TEX-I-1D45A"></use></g></g></g></svg>
